assets/icons/circle-exclamation.svg

<svg xmlns="http://www.w3.org/2000/svg" class="icon" viewBox="0 0 512 512">
  <path
    d="M256 48q57 0 104 28 47 27 76 76 28 49 28 104t-28 104q-29 49-76 76-47 28-104 28t-104-28q-47-27-76-76-28-49-28-104t28-104q29-49 76-76 47-28 104-28m0 464q70-1 128-34 58-34 94-94 34-61 34-128t-34-128q-36-60-94-94Q326 1 256 0q-70 1-128 34-58 34-94 94Q0 189 0 256t34 128q36 60 94 94 58 33 128 34m0-384q-22 2-24 24v112q2 22 24 24 22-2 24-24V152q-2-22-24-24m32 224q0-14-9-23t-23-9-23 9-9 23 9 23 23 9 23-9 9-23" />
</svg>

<svg xmlns="http://www.w3.org/2000/svg" class="icon" viewBox="0 0 512 512">
  <path
    d="M 256 48 Q 313 48 360 76 L 360 76 L 360 76 Q 407 103 436 152 Q 464 201 464 256 Q 464 311 436 360 Q 407 409 360 436 Q 313 464 256 464 Q 199 464 152 436 Q 105 409 76 360 Q 48 311 48 256 Q 48 201 76 152 Q 105 103 152 76 Q 199 48 256 48 L 256 48 Z M 256 512 Q 326 511 384 478 L 384 478 L 384 478 Q 442 444 478 384 Q 512 323 512 256 Q 512 189 478 128 Q 442 68 384 34 Q 326 1 256 0 Q 186 1 128 34 Q 70 68 34 128 Q 0 189 0 256 Q 0 323 34 384 Q 70 444 128 478 Q 186 511 256 512 L 256 512 Z M 256 128 Q 234 130 232 152 L 232 264 L 232 264 Q 234 286 256 288 Q 278 286 280 264 L 280 152 L 280 152 Q 278 130 256 128 L 256 128 Z M 288 352 Q 288 338 279 329 L 279 329 L 279 329 Q 270 320 256 320 Q 242 320 233 329 Q 224 338 224 352 Q 224 366 233 375 Q 242 384 256 384 Q 270 384 279 375 Q 288 366 288 352 L 288 352 Z"
  />
</svg>
